X:4
T:Kansas City  (R-152)
R:reel
Z:transcribed to ABC by Debby Knight
M:C|
L:1/8
K:A
%%begintext ragged
The first time, play quarter notes instead of the pairs of eighth notes in the first measure.  Make them loud.
%%endtext
cB|"A"AAcB AAcB | Aceg aega | "E7"bgeg fecd | ecef ecBc|
"A"A2cB A2cB | Aceg aega |"E7"bgeg fecd |"A"ecB2 A2 :|
|: cd| "A"e3e e3=g | fecd ecBA | "G"B3c B2=g2- | =gfeg fecA |
"A"e3f e2e=g | fecd ecBA | "E7"Bege fefg | "A"ga2g a2 :|
%%text 06/16/07
